src/assets/images/work2.svg

<svg width="60" height="60" viewBox="0 0 60 60" fill="none" xmlns="http://www.w3.org/2000/svg">
<path fill-rule="evenodd" clip-rule="evenodd" d="M18.2969 0.728027H41.4006C44.3221 0.728027 46.705 3.1109 46.705 6.0325V53.6638C46.705 56.5854 44.3221 58.9682 41.4006 58.9682H18.2969C15.3753 58.9682 12.9924 56.5854 12.9924 53.6638V6.0325C12.9924 3.1109 15.3753 0.728027 18.2969 0.728027Z" fill="#7A8C98"/>
<path fill-rule="evenodd" clip-rule="evenodd" d="M16.6548 10.4858H43.0431V48.3523C43.0431 48.6865 42.7705 48.959 42.4364 48.959H17.2615C17.1007 48.9586 16.9465 48.8946 16.8328 48.7809C16.7191 48.6672 16.6551 48.5131 16.6548 48.3523V10.4858Z" fill="#D4F2F6"/>
<path fill-rule="evenodd" clip-rule="evenodd" d="M24.9114 29.6877H34.7864C35.1862 29.6869 35.5717 29.8363 35.8665 30.1064C36.1613 30.3765 36.3438 30.7475 36.3778 31.1458L37.4195 43.0243C37.4601 43.4869 37.3197 43.9005 37.006 44.2429C36.6922 44.5854 36.2925 44.7613 35.828 44.7613H23.87C23.4055 44.7613 23.0057 44.5854 22.6921 44.2429C22.3783 43.9005 22.2379 43.4869 22.2786 43.0243L23.3201 31.1458C23.3541 30.7475 23.5366 30.3764 23.8313 30.1064C24.1261 29.8363 24.5116 29.6869 24.9114 29.6877Z" fill="#C29872"/>
<path fill-rule="evenodd" clip-rule="evenodd" d="M29.8486 39.1596C31.5231 39.1596 32.8889 38.2904 32.8889 37.2247C32.8889 36.1589 31.5231 35.2898 29.8486 35.2898C28.1741 35.2898 26.8083 36.159 26.8083 37.2247C26.8083 38.2904 28.1741 39.1596 29.8486 39.1596Z" fill="#F8C963"/>
<path fill-rule="evenodd" clip-rule="evenodd" d="M12.9926 6.03247H46.7053L58.969 14.9214H47.3208C47.3208 18.1379 44.7133 20.7454 41.4968 20.7454C38.2804 20.7454 35.6728 18.1378 35.6728 14.9214H24.0247C24.0247 18.1379 21.4173 20.7454 18.2007 20.7454C14.9843 20.7454 12.3767 18.1378 12.3767 14.9214H0.72876L12.9926 6.03247Z" fill="#F9F3F1"/>
<path fill-rule="evenodd" clip-rule="evenodd" d="M12.9926 14.1775L19.7351 6.03247H12.9926L0.72876 14.9214C0.72876 18.1379 3.33634 20.7454 6.55278 20.7454C9.76934 20.7454 12.3768 18.1378 12.3768 14.9214L12.9926 14.1775ZM58.9689 14.9214C58.9689 18.1379 56.3614 20.7454 53.1448 20.7454C49.9284 20.7454 47.3208 18.1378 47.3208 14.9214L46.7052 14.1777L39.9625 6.03259H46.7052L58.9689 14.9214ZM35.6729 14.9214C35.6729 18.1379 33.0654 20.7454 29.8489 20.7454C26.6324 20.7454 24.0248 18.1378 24.0248 14.9214L25.2489 10.4858L26.4777 6.03247H33.2202L34.4136 10.4858L35.602 14.9214H35.6729Z" fill="#F79595"/>
<path fill-rule="evenodd" clip-rule="evenodd" d="M12.3768 14.9214C12.3768 18.1379 9.76934 20.7454 6.55278 20.7454C3.33634 20.7454 0.72876 18.1378 0.72876 14.9214H12.3768Z" fill="#F47C7C"/>
<path fill-rule="evenodd" clip-rule="evenodd" d="M24.0248 14.9214C24.0248 18.1379 21.4173 20.7454 18.2007 20.7454C14.9843 20.7454 12.3767 18.1378 12.3767 14.9214H24.0248Z" fill="#EFE2DD"/>
<path fill-rule="evenodd" clip-rule="evenodd" d="M35.6729 14.9214C35.6729 18.1379 33.0655 20.7454 29.8489 20.7454C26.6325 20.7454 24.0249 18.1378 24.0249 14.9214H35.6729Z" fill="#F47C7C"/>
<path fill-rule="evenodd" clip-rule="evenodd" d="M47.3207 14.9214C47.3207 18.1379 44.7132 20.7454 41.4966 20.7454C38.2802 20.7454 35.6726 18.1378 35.6726 14.9214H47.3207Z" fill="#EFE2DD"/>
<path fill-rule="evenodd" clip-rule="evenodd" d="M58.9688 14.9214C58.9688 18.1379 56.3614 20.7454 53.1448 20.7454C49.9284 20.7454 47.3208 18.1378 47.3208 14.9214H58.9688Z" fill="#F47C7C"/>
<path fill-rule="evenodd" clip-rule="evenodd" d="M58.1848 15.6494H48.0991C48.4531 18.1157 50.582 20.0175 53.1448 20.0175C55.7076 20.0175 57.8308 18.1157 58.1848 15.6494ZM45.9759 53.6635V19.6973C45.3399 20.2956 44.5909 20.761 43.7727 21.0661V48.9598C43.7727 49.361 43.4417 49.6875 43.0422 49.6875H16.6552C16.25 49.6875 15.9247 49.361 15.9247 48.9598V21.066C15.1058 20.7623 14.3565 20.2968 13.7215 19.6972V53.6634C13.7215 56.1874 15.7706 58.2405 18.2934 58.2405H41.3982C43.9211 58.2405 45.9759 56.1874 45.9759 53.6635ZM11.5925 15.6494H1.50697C1.8666 18.1157 3.98982 20.0175 6.55263 20.0175C9.11532 20.0175 11.2387 18.1157 11.5925 15.6494ZM13.7785 5.30471H45.9188C45.5648 3.12604 43.6757 1.45601 41.3982 1.45601H18.2934C16.0218 1.45601 14.1268 3.12604 13.7785 5.30471ZM56.7235 14.1934L46.4667 6.76072H41.5124L47.6654 14.1934H56.7235ZM46.541 15.6494C46.187 18.1157 44.0581 20.0175 41.4953 20.0175C40.1369 20.0175 38.8527 19.4873 37.8938 18.525C37.1061 17.7362 36.6039 16.7345 36.4496 15.6494H46.541ZM17.3802 48.2314V21.4216C17.6485 21.4552 17.9225 21.4735 18.2021 21.4735C20.7306 21.4735 22.9281 20.0312 24.024 17.9262C24.3323 18.5291 24.735 19.0789 25.2169 19.5546C26.4498 20.792 28.0993 21.4735 29.8459 21.4735C32.3801 21.4735 34.5776 20.0312 35.6678 17.9262C35.98 18.5267 36.3823 19.0759 36.8607 19.5546C38.0993 20.792 39.7431 21.4735 41.4954 21.4735C41.7751 21.4735 42.0491 21.4552 42.3116 21.4216V48.2314H17.3802ZM13.1565 15.6494H23.2421C22.8883 18.1157 20.7649 20.0175 18.2021 20.0175C15.6393 20.0175 13.5103 18.1157 13.1565 15.6494ZM25.5194 6.76072H20.0742L13.9212 14.1934H23.4703L25.5194 6.76072ZM24.806 15.6494H34.8915C34.5375 18.1157 32.4086 20.0175 29.8458 20.0175C28.4874 20.0175 27.2089 19.4873 26.2443 18.525C25.4566 17.7361 24.9601 16.7345 24.806 15.6494ZM27.032 6.76072H32.6655L34.7146 14.1934H24.9829L27.032 6.76072ZM34.178 6.76072H39.6175L45.7705 14.1934H36.2271L34.178 6.76072ZM13.2249 6.76072H18.1849L12.0319 14.1934H2.97389L13.2249 6.76072ZM59.6973 14.9216C59.6973 18.5346 56.7579 21.4735 53.1448 21.4735C50.6962 21.4735 48.5557 20.1237 47.4313 18.1288V53.6635C47.4313 56.9906 44.7258 59.6966 41.3982 59.6966H18.2934C14.9715 59.6966 12.266 56.9906 12.266 53.6635V18.1288C11.1416 20.1237 9.00115 21.4735 6.55251 21.4735C2.93955 21.4735 0 18.5346 0 14.9216C0 14.6882 0.114175 14.4691 0.302485 14.3321L12.2773 5.65124C12.4771 2.50227 15.097 0 18.2933 0H41.3981C44.6001 0 47.22 2.50227 47.4198 5.65124L59.3946 14.3321C59.4879 14.3995 59.564 14.4881 59.6166 14.5906C59.6692 14.693 59.6969 14.8065 59.6973 14.9216ZM32.1575 37.2252C32.1575 37.7943 31.17 38.4313 29.8458 38.4313C28.5273 38.4313 27.5342 37.7943 27.5342 37.2252C27.5342 36.6549 28.5273 36.0181 29.8458 36.0181C31.17 36.0181 32.1575 36.6549 32.1575 37.2252ZM33.6187 37.2252C33.6187 38.7177 31.9634 39.8873 29.8459 39.8873C27.734 39.8873 26.0788 38.7177 26.0788 37.2252C26.0788 35.7315 27.734 34.5619 29.8459 34.5619C31.9634 34.5619 33.6187 35.7315 33.6187 37.2252ZM36.6951 43.0882C36.7122 43.337 36.6381 43.5722 36.4725 43.7531C36.307 43.934 36.0786 44.0334 35.8276 44.0334H23.8699C23.6187 44.0334 23.3904 43.9341 23.2249 43.7531C23.0594 43.5722 22.9794 43.337 23.0022 43.0882L24.041 31.2092C24.0866 30.7571 24.4576 30.4158 24.9085 30.4158H26.0158V31.3884C26.0158 31.7908 26.3411 32.1167 26.7406 32.1167C26.8365 32.117 26.9314 32.0984 27.02 32.062C27.1087 32.0255 27.1892 31.9719 27.2571 31.9042C27.325 31.8366 27.3788 31.7562 27.4156 31.6677C27.4523 31.5792 27.4712 31.4843 27.4712 31.3884V30.4158H32.2258V31.3884C32.2258 31.7908 32.5511 32.1167 32.9506 32.1167C33.0465 32.117 33.1414 32.0984 33.23 32.062C33.3187 32.0255 33.3992 31.9719 33.4671 31.9042C33.535 31.8366 33.5888 31.7562 33.6255 31.6677C33.6623 31.5792 33.6812 31.4843 33.6812 31.3884V30.4158H34.7828C35.0007 30.4144 35.2113 30.4953 35.3721 30.6424C35.533 30.7895 35.6323 30.992 35.6503 31.2092L36.6951 43.0882ZM27.4714 28.9598V28.0472C27.4714 26.7372 28.5388 25.6711 29.8458 25.6711C31.1586 25.6711 32.2259 26.7372 32.2259 28.0472V28.9598H27.4714ZM38.1449 42.9609C38.2021 43.611 37.9851 44.2588 37.5457 44.7371C37.1062 45.2149 36.4783 45.4894 35.8277 45.4894H23.87C23.2193 45.4894 22.5915 45.2148 22.152 44.7371C21.7126 44.2588 21.4956 43.611 21.5528 42.9609L22.5915 31.0826C22.7 29.8725 23.6931 28.9598 24.9089 28.9598H26.0161V28.0472C26.0161 25.9341 27.7341 24.2149 29.846 24.2149C31.9636 24.2149 33.6817 25.9341 33.6817 28.0472V28.9598H34.7832C35.999 28.9598 36.9978 29.8725 37.1006 31.0826L38.1449 42.9609ZM33.5159 54.4694C33.5159 54.8707 33.1906 55.1972 32.7854 55.1972H27.7568C27.3573 55.1972 27.032 54.8707 27.032 54.4694C27.032 54.0665 27.3573 53.741 27.7568 53.741H32.7854C32.8812 53.7407 32.9762 53.7593 33.0648 53.7958C33.1535 53.8322 33.234 53.8858 33.3019 53.9535C33.3698 54.0212 33.4236 54.1016 33.4604 54.1901C33.4971 54.2786 33.516 54.3736 33.5159 54.4694Z" fill="black"/>
</svg>

<svg width="60" height="60" fill="none" xmlns="http://www.w3.org/2000/svg"><path fill-rule="evenodd" clip-rule="evenodd" d="M18.297.728H41.4a5.315 5.315 0 0 1 5.304 5.304v47.632a5.315 5.315 0 0 1-5.304 5.304H18.297a5.315 5.315 0 0 1-5.305-5.304V6.032A5.315 5.315 0 0 1 18.297.728z" fill="#7A8C98"/><path fill-rule="evenodd" clip-rule="evenodd" d="M16.655 10.486h26.388v37.866a.608.608 0 0 1-.607.607H17.262a.608.608 0 0 1-.607-.607V10.486z" fill="#D4F2F6"/><path fill-rule="evenodd" clip-rule="evenodd" d="M24.911 29.688h9.875a1.594 1.594 0 0 1 1.592 1.458l1.041 11.878c.041.463-.1.877-.413 1.219a1.546 1.546 0 0 1-1.178.518H23.87c-.465 0-.864-.176-1.178-.518a1.545 1.545 0 0 1-.413-1.219l1.041-11.878a1.594 1.594 0 0 1 1.591-1.458z" fill="#C29872"/><path fill-rule="evenodd" clip-rule="evenodd" d="M29.849 39.16c1.674 0 3.04-.87 3.04-1.935 0-1.066-1.366-1.935-3.04-1.935-1.675 0-3.04.869-3.04 1.935 0 1.065 1.365 1.935 3.04 1.935z" fill="#F8C963"/><path fill-rule="evenodd" clip-rule="evenodd" d="M12.993 6.032h33.712l12.264 8.89H47.321a5.824 5.824 0 0 1-11.648 0H24.025a5.824 5.824 0 1 1-11.648 0H.729l12.264-8.89z" fill="#F9F3F1"/><path fill-rule="evenodd" clip-rule="evenodd" d="m12.993 14.178 6.742-8.146h-6.742L.729 14.922a5.824 5.824 0 0 0 11.648 0l.616-.745zm45.976.743a5.824 5.824 0 0 1-11.648 0l-.616-.743-6.742-8.145h6.742L58.97 14.92zm-23.296 0a5.824 5.824 0 0 1-11.648 0l1.224-4.435 1.229-4.454h6.742l1.194 4.454 1.188 4.435h.07z" fill="#F79595"/><path fill-rule="evenodd" clip-rule="evenodd" d="M12.377 14.921a5.824 5.824 0 1 1-11.648 0h11.648z" fill="#F47C7C"/><path fill-rule="evenodd" clip-rule="evenodd" d="M24.025 14.921a5.824 5.824 0 0 1-11.648 0h11.648z" fill="#EFE2DD"/><path fill-rule="evenodd" clip-rule="evenodd" d="M35.673 14.921a5.824 5.824 0 1 1-11.648 0h11.648z" fill="#F47C7C"/><path fill-rule="evenodd" clip-rule="evenodd" d="M47.32 14.921a5.824 5.824 0 0 1-11.647 0H47.32z" fill="#EFE2DD"/><path fill-rule="evenodd" clip-rule="evenodd" d="M58.969 14.921a5.824 5.824 0 1 1-11.648 0h11.648z" fill="#F47C7C"/><path fill-rule="evenodd" clip-rule="evenodd" d="M58.185 15.65H48.099a5.105 5.105 0 0 0 5.046 4.367 5.1 5.1 0 0 0 5.04-4.368zm-12.21 38.014V19.697a6.561 6.561 0 0 1-2.202 1.37V48.96a.732.732 0 0 1-.73.727H16.654a.728.728 0 0 1-.73-.727V21.066a6.502 6.502 0 0 1-2.204-1.369v33.966a4.578 4.578 0 0 0 4.572 4.578h23.105a4.583 4.583 0 0 0 4.578-4.578zM11.593 15.648H1.508c.36 2.467 2.483 4.368 5.046 4.368a5.1 5.1 0 0 0 5.04-4.368zm2.186-10.344h32.14a4.588 4.588 0 0 0-4.52-3.849H18.293a4.582 4.582 0 0 0-4.514 3.849zm42.945 8.888L46.468 6.761h-4.955l6.153 7.432h9.059zM46.541 15.65a5.105 5.105 0 0 1-5.046 4.368 5.058 5.058 0 0 1-3.601-1.492 5.069 5.069 0 0 1-1.444-2.876H46.54zm-29.16 32.582v-26.81c.267.034.541.053.821.053a6.568 6.568 0 0 0 5.822-3.548 6.351 6.351 0 0 0 1.193 1.629 6.498 6.498 0 0 0 4.629 1.919 6.555 6.555 0 0 0 5.822-3.548c.312.6.714 1.15 1.193 1.629a6.512 6.512 0 0 0 5.45 1.867v26.81h-24.93zM13.155 15.65h10.086a5.1 5.1 0 0 1-5.04 4.368 5.105 5.105 0 0 1-5.046-4.368zM25.52 6.761h-5.445l-6.153 7.432h9.55l2.048-7.432zm-.713 8.888h10.085a5.105 5.105 0 0 1-5.045 4.368 5.067 5.067 0 0 1-3.602-1.492 5.06 5.06 0 0 1-1.438-2.876zm2.226-8.888h5.634l2.049 7.432h-9.732l2.049-7.432zm7.146 0h5.44l6.152 7.432h-9.543l-2.049-7.432zm-20.953 0h4.96l-6.153 7.432H2.974l10.25-7.432zm46.472 8.16a6.56 6.56 0 0 1-6.552 6.553 6.559 6.559 0 0 1-5.714-3.345v35.534a6.039 6.039 0 0 1-6.033 6.034H18.293c-3.321 0-6.027-2.706-6.027-6.034V18.13a6.559 6.559 0 0 1-5.713 3.345A6.56 6.56 0 0 1 0 14.922c0-.234.114-.453.302-.59l11.975-8.68c.2-3.15 2.82-5.652 6.016-5.652h23.105a6.04 6.04 0 0 1 6.022 5.651l11.975 8.681a.73.73 0 0 1 .302.59zm-27.54 22.304c0 .57-.987 1.206-2.311 1.206-1.319 0-2.312-.637-2.312-1.206 0-.57.993-1.207 2.312-1.207 1.324 0 2.311.637 2.311 1.207zm1.462 0c0 1.493-1.656 2.662-3.773 2.662-2.112 0-3.767-1.17-3.767-2.662 0-1.494 1.655-2.663 3.767-2.663 2.117 0 3.773 1.17 3.773 2.663zm3.076 5.863a.862.862 0 0 1-.867.945H23.87a.861.861 0 0 1-.868-.945l1.039-11.879a.873.873 0 0 1 .867-.793h1.108v.972a.727.727 0 1 0 1.455 0v-.972h4.755v.972a.727.727 0 1 0 1.455 0v-.972h1.102a.865.865 0 0 1 .867.793l1.045 11.88zM27.471 28.96v-.913a2.38 2.38 0 0 1 2.375-2.376 2.38 2.38 0 0 1 2.38 2.376v.913H27.47zm10.674 14c.057.651-.16 1.299-.6 1.777a2.343 2.343 0 0 1-1.717.752H23.87c-.65 0-1.279-.274-1.718-.752a2.328 2.328 0 0 1-.6-1.776l1.04-11.878a2.315 2.315 0 0 1 2.317-2.123h1.107v-.913a3.835 3.835 0 0 1 3.83-3.832 3.837 3.837 0 0 1 3.836 3.832v.913h1.101a2.31 2.31 0 0 1 2.318 2.123l1.044 11.878zm-4.63 11.51a.728.728 0 0 1-.73.727h-5.028a.727.727 0 0 1 0-1.456h5.028a.728.728 0 0 1 .73.728z" fill="#000"/></svg>
